local/templates/.default/frontend/main/images/icons/fb.svg

<svg width="36" height="36" viewBox="0 0 36 36" fill="none" xmlns="http://www.w3.org/2000/svg">
<path fill-rule="evenodd" clip-rule="evenodd" d="M18 36C27.9411 36 36 27.9411 36 18C36 8.05887 27.9411 0 18 0C8.05887 0 0 8.05887 0 18C0 27.9411 8.05887 36 18 36ZM21.2706 7H22.5823C22.813 7 23.0002 7.16986 23 7.37931V10.4138C23 10.6232 22.8129 10.7931 22.5821 10.7931H21.2704C19.9291 10.7931 18.8377 11.7837 18.8377 13.0013V15.534H22.163C22.3937 15.534 22.5809 15.7039 22.5809 15.9133V18.9478C22.5809 19.1573 22.3937 19.3271 22.163 19.3271H18.8377V28.6207C18.8377 28.8301 18.6505 29 18.4198 29H15.0766C14.8459 29 14.6587 28.8301 14.6587 28.6207V19.3271H12.4179C12.1871 19.3271 12 19.1573 12 18.9478V15.9133C12 15.7039 12.1871 15.534 12.4179 15.534H14.6589V13.0013C14.6589 9.69219 17.6249 7 21.2706 7Z" fill="#848487"/>
</svg>

<svg width="36" height="36" fill="none" xmlns="http://www.w3.org/2000/svg"><path fill-rule="evenodd" clip-rule="evenodd" d="M18 36c9.941 0 18-8.059 18-18S27.941 0 18 0 0 8.059 0 18s8.059 18 18 18zm3.27-29h1.312c.231 0 .418.17.418.38v3.034c0 .21-.187.38-.418.38H21.27c-1.34 0-2.432.99-2.432 2.207v2.533h3.325c.23 0 .418.17.418.38v3.034c0 .21-.187.38-.418.38h-3.325v9.293c0 .21-.188.379-.418.379h-3.343c-.231 0-.418-.17-.418-.38v-9.293h-2.241c-.23 0-.418-.17-.418-.38v-3.034c0-.21.187-.379.418-.379h2.24v-2.533C14.659 9.692 17.626 7 21.272 7z" fill="#848487"/></svg>
